X:1
T:Title
%%score 1 { 2 | 3 }
L:1/8
Q:1/4=110
M:4/4
K:D
V:1 treble nm="Grand Piano, Staff 1"
V:2 bass nm="Choir Pad, Via Pacis, 66.66.88"
V:3 bass 
V:1
 [DF]2 [DF][DF] [=CA]3 [CA] | [B,G]6 [A,F]2 | [CE]2 D2 [DE]2 [DE]2 | [DF]6 [DF]2 | %4
w: By~Joseph~Barnby,~1889 * * * *||||
 [FB]3 [FB] [FA]2 [=F^G]2 | F2 [=F^G]2 [^FA]2 [Fd]2 | [Ec]4 [DB]4 | [CA]6 A2 | %8
w: ||||
 [Ae]2 [Ac]2 [Ad]2 F2 | [Fc]2 [F^A]2 [FB]2 [D=A]2 | [DG]2 [DF]2 [DE]2 [DB]2 | D4 [CE]4 | D8 |] %13
w: |||||
V:2
 A,2 A,A, F,3 F, | G,6 A,2 | G,2 F,2 B,2 A,2 | A,6 A,2 | D3 D C2 C2 | C2[K:bass] B,2 A,2 A,2 | %6
 A,2 F,2 ^G,4 | A,6 A,2 | C2 E2 D2 F,2 | ^A,2 C2 B,2 F,2 | G,2 A,2 B,2 E,2 | F,4 G,4 | F,8 |] %13
V:3
 D,2 D,D, D,3 D, | D,6 D,2 | A,,2 B,,2 G,,2 A,,2 | D,6 D,2 | B,,3 B,, C,2 B,2 | A,2 ^G,2 F,2 B,,2 | %6
 E,4 E,4 | z8 | G,2 A,2 F,2 z2 | E,2 F,2 D,2 =C,2 | B,,2 A,,2 G,,2 G,,2 | A,,4 A,,4 | D,8 |] %13

